Sources/FrostedUI/Resources/Icons.xcassets/listCheck24.imageset/list-check-24.svg

<svg width="24" height="24" viewBox="0 0 24 24" fill="none" xmlns="http://www.w3.org/2000/svg" data-fui-icon="true">
  <path
    d="M18.25 3C19.7688 3 21 4.23122 21 5.75V18.25C21 19.7688 19.7688 21 18.25 21H5.75C4.23122 21 3 19.7688 3 18.25V5.75C3 4.23122 4.23122 3 5.75 3H18.25ZM5.75 4.5C5.05964 4.5 4.5 5.05964 4.5 5.75V18.25C4.5 18.9404 5.05964 19.5 5.75 19.5H18.25C18.9404 19.5 19.5 18.9404 19.5 18.25V5.75C19.5 5.05964 18.9404 4.5 18.25 4.5H5.75ZM9.93945 13.3037C10.1879 12.9724 10.6579 12.905 10.9893 13.1533C11.3206 13.4018 11.388 13.8718 11.1396 14.2031L9.26758 16.6992C9.02869 17.0173 8.58301 17.0937 8.25195 16.873L7.12695 16.123C6.78234 15.8933 6.68925 15.4276 6.91895 15.083C7.14871 14.7384 7.61434 14.6452 7.95898 14.875L8.49316 15.2314L9.93945 13.3037ZM16.25 14.25C16.6642 14.25 17 14.5858 17 15C17 15.4142 16.6642 15.75 16.25 15.75H13.75C13.3358 15.75 13 15.4142 13 15C13 14.5858 13.3358 14.25 13.75 14.25H16.25ZM9.93945 7.30273C10.1879 6.97142 10.6579 6.90396 10.9893 7.15234C11.3206 7.40085 11.3881 7.87078 11.1396 8.20215L9.26758 10.6982C9.02869 11.0163 8.58297 11.0927 8.25195 10.8721L7.12695 10.1221C6.78239 9.89235 6.68936 9.42665 6.91895 9.08203C7.14872 8.73739 7.61435 8.64425 7.95898 8.87402L8.49316 9.23047L9.93945 7.30273ZM16.3076 8.25C16.7218 8.25 17.0576 8.58579 17.0576 9C17.0576 9.41421 16.7218 9.75 16.3076 9.75H13.8076C13.3936 9.74979 13.0576 9.41409 13.0576 9C13.0576 8.58591 13.3936 8.25021 13.8076 8.25H16.3076Z"
    fill="currentColor"
  />
</svg>

<svg xmlns="http://www.w3.org/2000/svg" width="24" height="24" fill="none" data-fui-icon="true" viewBox="0 0 24 24"><path fill="currentColor" d="M18.25 3A2.75 2.75 0 0 1 21 5.75v12.5A2.75 2.75 0 0 1 18.25 21H5.75A2.75 2.75 0 0 1 3 18.25V5.75A2.75 2.75 0 0 1 5.75 3zM5.75 4.5c-.69 0-1.25.56-1.25 1.25v12.5c0 .69.56 1.25 1.25 1.25h12.5c.69 0 1.25-.56 1.25-1.25V5.75c0-.69-.56-1.25-1.25-1.25zm4.19 8.804a.75.75 0 0 1 1.2.9l-1.872 2.495a.75.75 0 0 1-1.016.174l-1.125-.75a.75.75 0 0 1 .832-1.248l.534.356zm6.31.946a.75.75 0 0 1 0 1.5h-2.5a.75.75 0 0 1 0-1.5zM9.94 7.303a.75.75 0 0 1 1.2.9l-1.872 2.495a.75.75 0 0 1-1.016.174l-1.125-.75a.75.75 0 0 1 .832-1.248l.534.356zm6.368.947a.75.75 0 0 1 0 1.5h-2.5a.75.75 0 0 1 0-1.5z"/></svg>
